frontend/public/Images/Business/p5_text2.svg

<svg width="43" height="23" viewBox="0 0 43 23" fill="none" xmlns="http://www.w3.org/2000/svg">
<path d="M1.77695 2.175V3.85H10.027C9.60195 7.8 6.15195 10.975 0.876953 12.625L1.70195 14.25C8.15195 12.225 12.227 7.975 12.227 2.175H1.77695ZM6.30195 15.15H4.25195V22.35H19.202V20.675H6.30195V15.15ZM18.227 7.25V0.449999H16.177V16.825H18.227V8.95H21.527V7.25H18.227ZM37.35 10.975C34.025 9.825 31.725 6.9 31.725 3.675V1.475H29.675V3.675C29.675 7.025 27.4 10.15 24.025 11.375L25.075 13C27.7 12 29.75 9.925 30.725 7.275C31.725 9.75 33.75 11.675 36.325 12.6L37.35 10.975ZM27.225 16.725H40.175V22.875H42.225V15.075H27.225V16.725ZM40.175 0.449999V13.925H42.225V0.449999H40.175Z" fill="white"/>
</svg>

<svg width="43" height="23" fill="none" xmlns="http://www.w3.org/2000/svg"><path d="M1.777 2.175V3.85h8.25c-.425 3.95-3.875 7.125-9.15 8.775l.825 1.625c6.45-2.025 10.525-6.275 10.525-12.075H1.777zM6.302 15.15h-2.05v7.2h14.95v-1.675h-12.9V15.15zm11.925-7.9V.45h-2.05v16.375h2.05V8.95h3.3v-1.7h-3.3zm19.123 3.725c-3.325-1.15-5.625-4.075-5.625-7.3v-2.2h-2.05v2.2c0 3.35-2.275 6.475-5.65 7.7L25.075 13a9.68 9.68 0 005.65-5.725c1 2.475 3.025 4.4 5.6 5.325l1.025-1.625zm-10.125 5.75h12.95v6.15h2.05v-7.8h-15v1.65zM40.175.45v13.475h2.05V.45h-2.05z" fill="#fff"/></svg>
